packages/core/src/svgs/clh.svg

<svg width="24" height="24" viewBox="0 0 24 24" fill="none" xmlns="http://www.w3.org/2000/svg">
<g clip-path="url(#clip0_31_8405)">
<path d="M0 0H24V24H0V0Z" fill="#F0F3FA"/>
<path d="M11.3058 18.8443C9.62334 18.7191 8.04726 17.9738 6.88294 16.7529C5.74487 15.5607 5.12009 13.9695 5.14294 12.3215C5.1776 10.6734 5.85599 9.10429 7.03294 7.95005C8.22008 6.77577 10.0458 6.07719 11.7472 6.00005C11.8138 5.99872 11.8784 6.02331 11.9272 6.06862C11.9502 6.0909 11.9685 6.11754 11.981 6.14698C11.9935 6.17642 12 6.20806 12.0001 6.24005V8.34005C12.0001 8.39577 11.9744 8.45577 11.9315 8.49862C11.8887 8.54148 11.8287 8.56719 11.7644 8.57148C10.9801 8.61434 10.0072 8.82862 9.37294 9.27434C8.86396 9.62873 8.44761 10.1003 8.15897 10.6492C7.87032 11.1982 7.71784 11.8084 7.71437 12.4286C7.71437 14.5972 9.64294 16.3029 11.7858 16.2858C13.8344 16.2686 15.7287 14.7258 15.8572 12.6558C15.8572 12.5958 15.8872 12.5401 15.9301 12.4972C15.9729 12.4543 16.0372 12.4286 16.1015 12.4286H18.1758C18.243 12.4284 18.3076 12.4546 18.3558 12.5015C18.3788 12.5238 18.397 12.5504 18.4095 12.5798C18.422 12.6093 18.4285 12.6409 18.4287 12.6729C18.3944 13.5301 18.1844 14.3743 17.8072 15.1586C17.4255 15.9411 16.8889 16.638 16.2301 17.2072C15.5599 17.7862 14.7823 18.2274 13.9415 18.5058C13.0929 18.7843 12.1972 18.9001 11.3058 18.8443Z" fill="#0E1D51"/>
<path d="M13.0886 6C13.0272 6 12.9684 6.02438 12.925 6.06778C12.8816 6.11119 12.8572 6.17005 12.8572 6.23143V8.34C12.8572 8.40138 12.8816 8.46024 12.925 8.50364C12.9684 8.54705 13.0272 8.57143 13.0886 8.57143H15.8572V11.34C15.8573 11.3862 15.8713 11.4313 15.8972 11.4694C15.9232 11.5076 15.96 11.5372 16.0029 11.5543C16.0286 11.5671 16.0586 11.5714 16.0886 11.5714H18.1972C18.2582 11.5703 18.3164 11.5456 18.3596 11.5024C18.4028 11.4593 18.4275 11.401 18.4286 11.34V6H13.0886Z" fill="url(#paint0_linear_31_8405)"/>
</g>
<defs>
<linearGradient id="paint0_linear_31_8405" x1="12.8572" y1="8.78571" x2="18.4286" y2="8.78571" gradientUnits="userSpaceOnUse">
<stop stop-color="#7B7CF2"/>
<stop offset="1" stop-color="#2DCAED"/>
</linearGradient>
<clipPath id="clip0_31_8405">
<rect width="24" height="24" fill="white"/>
</clipPath>
</defs>
</svg>

<svg xmlns="http://www.w3.org/2000/svg" width="24" height="24" fill="none" viewBox="0 0 24 24"><g clip-path="url(#a)"><path fill="#F0F3FA" d="M0 0h24v24H0z"/><path fill="#0E1D51" d="M11.306 18.844a6.8 6.8 0 0 1-4.423-2.091 6.3 6.3 0 0 1-1.74-4.431 6.3 6.3 0 0 1 1.89-4.372C8.22 6.776 10.046 6.077 11.747 6a.26.26 0 0 1 .18.069.24.24 0 0 1 .073.171v2.1a.23.23 0 0 1-.069.159.26.26 0 0 1-.167.072c-.784.043-1.757.258-2.391.703a3.87 3.87 0 0 0-1.659 3.155c0 2.168 1.929 3.874 4.072 3.857 2.048-.017 3.943-1.56 4.071-3.63 0-.06.03-.116.073-.159a.25.25 0 0 1 .172-.068h2.074a.26.26 0 0 1 .234.15q.018.045.019.094a6.3 6.3 0 0 1-.622 2.486 6.4 6.4 0 0 1-1.577 2.048 6.7 6.7 0 0 1-2.289 1.299 7 7 0 0 1-2.635.338"/><path fill="url(#b)" d="M13.089 6a.23.23 0 0 0-.232.231V8.34a.23.23 0 0 0 .232.231h2.768v2.769a.23.23 0 0 0 .146.214.2.2 0 0 0 .086.017h2.108a.236.236 0 0 0 .232-.231V6z"/></g><defs><linearGradient id="b" x1="12.857" x2="18.429" y1="8.786" y2="8.786" gradientUnits="userSpaceOnUse"><stop stop-color="#7B7CF2"/><stop offset="1" stop-color="#2DCAED"/></linearGradient><clipPath id="a"><path fill="#fff" d="M0 0h24v24H0z"/></clipPath></defs></svg>
